;FLAVOR:Marlin
;TIME:25702
;Filament used: 30.0812m
;Layer height: 0.2
;MINX:6.395
;MINY:31.059
;MINZ:0.2
;MAXX:263.594
;MAXY:173.941
;MAXZ:17
;Generated with Cura_SteamEngine 4.13.1
M140 S60
M105
M190 S60
M104 S210
M105
M109 S210
M82 ;absolute extrusion mode
G28 ;Home
G92 E0
G1 F200 E3
G92 E0
G1 F1800 X-3 Y40
G1 X-3 Y10
G1 X-3 Y40
G1 X-3 Y10
G1 Z15.0 F6000 ;Move the platform down 15mm
;Prime the extruder
G92 E0
G92 E0
G1 F1500 E-3
;LAYER_COUNT:85
;LAYER:0
M107
G0 F3600 X45.409 Y35.834 Z0.2
;TYPE:SKIRT
G1 F1500 E0
G1 F1800 X45.889 Y35.243 E0.02532
G1 X46.257 Y34.853 E0.04316
G1 X46.478 Y34.667 E0.05277
G1 X47.154 Y34.144 E0.08119
G1 X48.061 Y33.464 E0.1189
G1 X48.616 Y33.06 E0.14173
G1 X49.072 Y32.778 E0.15956
G1 X49.325 Y32.659 E0.16886
G1 X50.078 Y32.339 E0.19607
G1 X51.18 Y31.89 E0.23565
G1 X51.795 Y31.65 E0.25761
G1 X52.308 Y31.493 E0.27545
G1 X52.584 Y31.442 E0.28479
G1 X53.443 Y31.317 E0.31366
G1 X54.55 Y31.174 E0.35078
G1 X55.242 Y31.094 E0.37395
G1 X55.876 Y31.061 E0.39507
G1 X55.993 Y31.059 E0.39896
G1 X81.07 Y31.059 E1.23302
G1 X82.781 Y31.084 E1.28994
G1 X83.728 Y31.11 E1.32145
G1 X86.458 Y31.11 E1.41225
G1 X87.895 Y31.078 E1.46005
G1 X88.59 Y31.059 E1.48318
G1 X171.07 Y31.059 E4.22647
G1 X172.781 Y31.084 E4.28339
G1 X173.728 Y31.11 E4.3149
G1 X176.458 Y31.11 E4.4057
G1 X177.895 Y31.078 E4.45351
G1 X178.59 Y31.059 E4.47663
G1 X204.345 Y31.059 E5.33324
G1 X204.953 Y31.068 E5.35347
G1 X205.378 Y31.1 E5.36764
G1 X206.591 Y31.263 E5.40835
G1 X207.953 Y31.476 E5.4542
G1 X208.649 Y31.595 E5.47769
G1 X209.169 Y31.725 E5.49551
G1 X209.603 Y31.9 E5.51108
G1 X210.239 Y32.206 E5.53455
G1 X211.826 Y33.001 E5.59359
G1 X212.449 Y33.324 E5.61693
G1 X212.905 Y33.606 E5.63476
G1 X213.27 Y33.908 E5.65052
G1 X213.772 Y34.385 E5.67355
G1 X215.014 Y35.596 E5.73125
G1 X215.481 Y36.065 E5.75326
G1 X215.765 Y36.386 E5.76752
G1 X216.481 Y37.302 E5.80618
G1 X262.495 Y98.669 E8.3573
G1 X262.902 Y99.229 E8.38033
G1 X263.184 Y99.685 E8.39816
G1 X263.395 Y100.178 E8.416
G1 X263.531 Y100.696 E8.43381
G1 X263.59 Y101.323 E8.45476
G1 X263.594 Y102.051 E8.47897
G1 X263.589 Y102.539 E8.4952
G1 X263.59 Y103.642 E8.53189
G1 X263.551 Y104.177 E8.54973
G1 X263.432 Y104.7 E8.56757
G1 X263.237 Y105.199 E8.58539
G1 X262.908 Y105.753 E8.60682
G1 X262.334 Y106.547 E8.63941
G1 X216.28 Y167.967 E11.19273
G1 X215.904 Y168.454 E11.2132
G1 X215.62 Y168.779 E11.22755
G1 X214.756 Y169.656 E11.2685
G1 X213.788 Y170.598 E11.31342
G1 X213.263 Y171.095 E11.33747
G1 X212.847 Y171.434 E11.35532
G1 X212.379 Y171.713 E11.37344
G1 X211.846 Y171.988 E11.39339
G1 X210.227 Y172.799 E11.45361
G1 X209.609 Y173.098 E11.47645
G1 X209.11 Y173.295 E11.49429
G1 X208.648 Y173.405 E11.51009
G1 X207.946 Y173.525 E11.53377
G1 X206.259 Y173.788 E11.59056
G1 X205.587 Y173.883 E11.61313
G1 X205.158 Y173.917 E11.62745
G1 X203.98 Y173.941 E11.66664
G1 X178.93 Y173.941 E12.4998
G1 X177.219 Y173.916 E12.55672
G1 X176.272 Y173.89 E12.58823
G1 X173.542 Y173.89 E12.67903
G1 X172.105 Y173.922 E12.72683
G1 X171.41 Y173.941 E12.74996
G1 X88.93 Y173.941 E15.49325
G1 X87.219 Y173.916 E15.55017
G1 X86.272 Y173.89 E15.58168
G1 X83.542 Y173.89 E15.67248
G1 X82.105 Y173.922 E15.72028
G1 X81.41 Y173.941 E15.74341
G1 X56.318 Y173.941 E16.57797
G1 X55.621 Y173.931 E16.60116
G1 X55.05 Y173.889 E16.6202
G1 X54.92 Y173.874 E16.62455
G1 X53.283 Y173.663 E16.67945
G1 X52.62 Y173.568 E16.70172
G1 X52.097 Y173.452 E16.71954
G1 X51.824 Y173.358 E16.72915
G1 X51.028 Y173.048 E16.75756
G1 X49.944 Y172.606 E16.79649
G1 X49.345 Y172.352 E16.81813
G1 X48.868 Y172.107 E16.83597
G1 X48.631 Y171.948 E16.84546
G1 X47.943 Y171.447 E16.87377
G1 X47.08 Y170.799 E16.90966
G1 X46.493 Y170.346 E16.93432
G1 X46.094 Y169.988 E16.95215
G1 X45.902 Y169.771 E16.96179
G1 X45.383 Y169.134 E16.98912
G1 X44.676 Y168.24 E17.02703
G1 X44.244 Y167.677 E17.05063
G1 X43.883 Y167.139 E17.07218
G1 X43.823 Y167.042 E17.07597
G1 X7.247 Y106.067 E19.4409
G1 X6.897 Y105.464 E19.46409
G1 X6.664 Y104.982 E19.48189
G1 X6.504 Y104.47 E19.49973
G1 X6.412 Y103.727 E19.52463
G1 X6.395 Y102.855 E19.55364
G1 X6.411 Y102.563 E19.56337
G1 X6.41 Y101.347 E19.60381
G1 X6.45 Y100.813 E19.62162
G1 X6.568 Y100.29 E19.63946
G1 X6.855 Y99.612 E19.66394
G1 X7.115 Y99.152 E19.68152
G1 X43.661 Y38.229 E22.04445
G1 X44.034 Y37.627 E22.068
G1 X44.395 Y37.12 E22.0887
G1 X45.409 Y35.834 E22.14317
G0 F3600 X45.751 Y36.046
G1 F1800 X46.199 Y35.495 E22.16679
G1 X46.723 Y34.984 E22.19113
G1 X47.395 Y34.464 E22.21939
G1 X48.297 Y33.788 E22.25688
G1 X48.852 Y33.384 E22.27972
G1 X49.482 Y33.027 E22.3038
G1 X50.229 Y32.709 E22.3308
G1 X51.326 Y32.263 E22.37019
G1 X51.941 Y32.023 E22.39215
G1 X52.642 Y31.838 E22.41626
G1 X53.495 Y31.714 E22.44493
G1 X54.596 Y31.571 E22.48186
G1 X55.288 Y31.491 E22.50503
G1 X55.889 Y31.461 E22.52504
G1 X55.993 Y31.459 E22.5285
G1 X81.064 Y31.459 E23.36237
G1 X82.77 Y31.484 E23.41911
G1 X83.717 Y31.51 E23.45062
G1 X86.467 Y31.51 E23.54209
G1 X87.881 Y31.478 E23.58913
G1 X88.496 Y31.46 E23.60959
G1 X171.064 Y31.459 E26.35582
G1 X172.77 Y31.484 E26.41256
G1 X173.717 Y31.51 E26.44407
G1 X176.467 Y31.51 E26.53554
G1 X177.881 Y31.478 E26.58258
G1 X178.496 Y31.46 E26.60304
G1 X204.339 Y31.459 E27.46259
G1 X204.947 Y31.468 E27.48281
G1 X205.325 Y31.496 E27.49542
G1 X206.529 Y31.658 E27.53582
G1 X207.885 Y31.871 E27.58148
G1 X208.581 Y31.99 E27.60496
G1 X209.071 Y32.114 E27.62177
G1 X209.43 Y32.261 E27.63468
G1 X210.06 Y32.564 E27.65793
G1 X211.642 Y33.356 E27.71677
G1 X212.265 Y33.679 E27.74011
G1 X212.694 Y33.947 E27.75694
G1 X212.994 Y34.199 E27.76997
G1 X213.493 Y34.672 E27.79283
G1 X214.731 Y35.878 E27.85032
G1 X215.198 Y36.347 E27.87233
G1 X215.45 Y36.632 E27.88498
G1 X216.161 Y37.542 E27.92339
G1 X262.172 Y98.904 E30.47432
G1 X262.579 Y99.464 E30.49735
G1 X262.843 Y99.895 E30.51416
G1 X263.035 Y100.362 E30.53095
G1 X263.152 Y100.854 E30.54777
G1 X263.19 Y101.326 E30.56352
G1 X263.194 Y102.047 E30.5875
G1 X263.189 Y102.535 E30.60373
G1 X263.19 Y103.642 E30.64055
G1 X263.151 Y104.146 E30.65737
G1 X263.032 Y104.638 E30.6742
G1 X262.838 Y105.104 E30.69099
G1 X262.584 Y105.519 E30.70717
G1 X262.014 Y106.307 E30.73952
G1 X215.963 Y167.723 E33.29268
G1 X215.587 Y168.21 E33.31314
G1 X215.335 Y168.499 E33.3259
G1 X214.477 Y169.369 E33.36654
G1 X213.513 Y170.308 E33.4113
G1 X212.988 Y170.805 E33.43534
G1 X212.594 Y171.122 E33.45216
G1 X212.196 Y171.358 E33.46755
G1 X211.667 Y171.63 E33.48734
G1 X210.053 Y172.439 E33.54738
G1 X209.435 Y172.738 E33.57022
G1 X208.964 Y172.921 E33.58702
G1 X208.58 Y173.011 E33.60014
G1 X207.885 Y173.13 E33.6236
G1 X206.203 Y173.391 E33.68021
G1 X205.531 Y173.486 E33.70278
G1 X205.15 Y173.517 E33.7155
G1 X203.98 Y173.541 E33.75442
G1 X178.936 Y173.541 E34.58738
G1 X177.23 Y173.516 E34.64413
G1 X176.283 Y173.49 E34.67564
G1 X173.533 Y173.49 E34.76711
G1 X172.119 Y173.522 E34.81415
G1 X171.504 Y173.54 E34.83461
G1 X88.936 Y173.541 E37.58084
G1 X87.23 Y173.516 E37.63758
G1 X86.283 Y173.49 E37.66909
G1 X83.533 Y173.49 E37.76056
G1 X82.119 Y173.522 E37.8076
G1 X81.504 Y173.54 E37.82806
G1 X56.324 Y173.541 E38.66555
G1 X55.627 Y173.531 E38.68874
G1 X55.086 Y173.49 E38.70678
G1 X54.971 Y173.478 E38.71063
G1 X53.34 Y173.267 E38.76533
G1 X52.677 Y173.172 E38.78761
G1 X51.969 Y172.986 E38.81195
G1 X51.178 Y172.677 E38.8402
G1 X50.1 Y172.238 E38.87891
G1 X49.501 Y171.984 E38.90055
G1 X48.867 Y171.625 E38.92478
G1 X48.183 Y171.127 E38.95292
G1 X47.324 Y170.482 E38.98865
G1 X46.737 Y170.029 E39.01331
G1 X46.212 Y169.518 E39.03768
G1 X45.696 Y168.885 E39.06484
G1 X44.993 Y167.996 E39.10254
G1 X44.561 Y167.433 E39.12614
G1 X44.22 Y166.923 E39.14655
G1 X44.166 Y166.836 E39.14995
G1 X7.593 Y105.866 E41.51468
G1 X7.243 Y105.263 E41.53787
G1 X7.025 Y104.807 E41.55468
G1 X6.881 Y104.323 E41.57148
G1 X6.812 Y103.719 E41.5917
G1 X6.795 Y102.847 E41.62071
G1 X6.811 Y102.581 E41.62957
G1 X6.81 Y101.347 E41.67061
G1 X6.85 Y100.843 E41.68743
G1 X6.968 Y100.352 E41.70422
G1 X7.205 Y99.805 E41.72405
G1 X7.46 Y99.354 E41.74128
G1 X44.001 Y38.44 E44.10387
G1 X44.374 Y37.838 E44.12742
G1 X44.716 Y37.359 E44.147
G1 X45.751 Y36.046 E44.20261
G1 F1500 E41.20261
G0 F3600 X52.914 Y33.966
G0 X55.629 Y33.62
G0 X82.037 Y33.623
G0 X82.761 Y34.347
G0 X82.753 Y36.631
G0 X82.701 Y36.759
;TYPE:SUPPORT
G1 F1500 E44.20261
G1 F1800 X82.98 Y36.092 E44.22665
G1 X87.272 Y36.092 E44.3694
G1 X87.375 Y36.337 E44.37824
G1 X87.375 Y36.759 E44.39228
G1 X82.701 Y36.759 E44.54774
G1 F1500 E41.54774
G0 F3600 X85 Y36.599
G1 F1500 E44.54774
G1 F1800 X85 Y36.252 E44.55928
G1 F1500 E41.55928
G0 F3600 X87.963 Y33.623
G0 X172.037 Y33.623
G0 X172.761 Y34.347
G0 X172.753 Y36.631
G0 X172.701 Y36.759
G1 F1500 E44.55928
G1 F1800 X172.98 Y36.092 E44.58333
G1 X177.272 Y36.092 E44.72608
G1 X177.375 Y36.337 E44.73492
G1 X177.375 Y36.759 E44.74895
G1 X172.701 Y36.759 E44.90441
G1 F1500 E41.90441
G0 F3600 X175 Y36.599
G1 F1500 E44.90441
G1 F1800 X175 Y36.252 E44.91595
G1 F1500 E41.91595
G0 F3600 X177.963 Y33.623
G0 X205.118 Y33.626
G0 X208.442 Y34.17
G0 X211.47 Y35.717
G0 X213.821 Y38.023
G0 X261.043 Y101.01
G0 X261.043 Y103.99
G0 X213.759 Y167.052
G0 X211.312 Y169.392
G0 X208.258 Y170.885
G0 X205.023 Y171.38
G0 X177.963 Y171.377
G0 X172.753 Y168.369
G0 X172.701 Y168.241
G1 F1500 E44.91595
G1 F1800 X177.375 Y168.241 E45.07141
G1 X177.375 Y168.666 E45.08555
G1 X177.274 Y168.908 E45.09427
G1 X172.98 Y168.908 E45.23709
G1 X172.701 Y168.241 E45.26113
G1 F1500 E42.26113
G0 F3600 X175 Y168.401
G1 F1500 E45.26113
G1 F1800 X175 Y168.748 E45.27268
G1 F1500 E42.27268
G0 F3600 X172.037 Y171.377
G0 X87.963 Y171.377
G0 X87.239 Y170.653
G0 X87.235 Y168.666
G0 X87.375 Y168.666
G1 F1500 E45.27268
G1 F1800 X87.274 Y168.908 E45.2814
G1 X82.98 Y168.908 E45.42422
G1 X82.701 Y168.241 E45.44826
G1 X87.375 Y168.241 E45.60372
G1 X87.375 Y168.666 E45.61786
G1 F1500 E42.61786
G0 F3600 X85 Y168.748
G1 F1500 E45.61786
G1 F1800 X85 Y168.401 E45.6294
G1 F1500 E42.6294
;MESH:side wall assemble 1.1.stl
G0 F3600 X82.037 Y171.377
G0 X55.548 Y171.374
G0 X52.76 Y170.989
G0 X50.17 Y169.917
G0 X47.904 Y168.194
G0 X46.202 Y166.029
G0 X8.928 Y103.879
G0 X9.632 Y102.625
G0 X85 Y102.381
G0 X85 Y100.921
G0 X83.718 Y83.878
;TYPE:WALL-INNER
G1 F1500 E45.6294
G1 F1800 X85.445 Y84.185 E45.68774
G1 X86.964 Y83.309 E45.74606
G1 X87.565 Y81.659 E45.80447
G1 X86.964 Y80.01 E45.86284
G1 X85.445 Y79.134 E45.92116
G1 X83.718 Y79.438 E45.97949
G1 X82.59 Y80.781 E46.03782
G1 X82.59 Y82.537 E46.09623
G1 X83.718 Y83.878 E46.15451
G0 F3600 X83.931 Y83.51
G1 F1800 X85.371 Y83.766 E46.20315
G1 X86.638 Y83.035 E46.25181
G1 X87.139 Y81.659 E46.30051
G1 X86.638 Y80.284 E46.34918
G1 X85.371 Y79.553 E46.39784
G1 X83.931 Y79.807 E46.44647
G1 X82.99 Y80.927 E46.49512
G1 X82.99 Y82.391 E46.54382
G1 X83.931 Y83.51 E46.59245
G0 F3600 X84.144 Y83.142
;TYPE:WALL-OUTER
G1 F1800 X85.297 Y83.347 E46.6314
G1 X86.312 Y82.761 E46.67038
G1 X86.713 Y81.659 E46.70938
G1 X86.312 Y80.558 E46.74835
G1 X85.297 Y79.972 E46.78733
G1 X84.144 Y80.176 E46.82628
G1 X83.39 Y81.073 E46.86525
G1 X83.39 Y82.245 E46.90423
G1 X84.144 Y83.142 E46.94321
G0 F3600 X84.34 Y83.177
G0 X84.263 Y83.609
G1 F1500 E43.94321
G0 F3600 X173.718 Y83.878
;TYPE:WALL-INNER
G1 F1500 E46.94321
G1 F1800 X175.445 Y84.185 E47.00155
G1 X176.964 Y83.309 E47.05987
G1 X177.565 Y81.659 E47.11828
G1 X176.964 Y80.01 E47.17665
G1 X175.445 Y79.134 E47.23497
G1 X173.718 Y79.438 E47.2933
G1 X172.59 Y80.781 E47.35163
G1 X172.59 Y82.537 E47.41004
G1 X173.718 Y83.878 E47.46832
G0 F3600 X173.931 Y83.51
G1 F1800 X175.371 Y83.766 E47.51696
G1 X176.638 Y83.035 E47.56562
G1 X177.139 Y81.659 E47.61432
G1 X176.638 Y80.284 E47.66299
G1 X175.371 Y79.553 E47.71165
G1 X173.931 Y79.807 E47.76028
G1 X172.99 Y80.927 E47.80893
G1 X172.99 Y82.391 E47.85763
G1 X173.931 Y83.51 E47.90626
G0 F3600 X174.144 Y83.142
;TYPE:WALL-OUTER
G1 F1800 X175.297 Y83.347 E47.94521
G1 X176.312 Y82.761 E47.98419
G1 X176.713 Y81.659 E48.02319
G1 X176.312 Y80.558 E48.06216
G1 X175.297 Y79.972 E48.10114
G1 X174.144 Y80.176 E48.14009
G1 X173.39 Y81.073 E48.17906
G1 X173.39 Y82.245 E48.21804
G1 X174.144 Y83.142 E48.25702
G0 F3600 X174.34 Y83.177
G0 X174.263 Y83.609
G0 X173.153 Y82.332
G0 X173.153 Y81.243
G0 X179.275 Y38.659
;TYPE:WALL-INNER
G1 F1800 X179.275 Y35.659 E48.3568
G1 X204.922 Y35.659 E49.20982
G1 X207.732 Y36.096 E49.30441
G1 X210.212 Y37.338 E49.39666
G1 X212.244 Y39.317 E49.491
G1 X258 Y100.341 E52.02784
G1 X11.768 Y100.341 E60.21755
G1 X47.914 Y40.082 E62.5547
G1 X49.386 Y38.222 E62.63359
G1 X51.236 Y36.833 E62.71053
G1 X53.366 Y35.966 E62.78702
G1 X55.73 Y35.659 E62.86631
G1 X80.725 Y35.659 E63.69765
G1 X80.725 Y38.659 E63.79743
G1 X89.275 Y38.659 E64.0818
G1 X89.275 Y35.659 E64.18158
G1 X170.725 Y35.659 E66.89062
G1 X170.725 Y38.659 E66.9904
G1 X179.275 Y38.659 E67.27477
G0 F3600 X178.875 Y38.259
G1 F1800 X178.875 Y35.259 E67.37455
G1 X204.951 Y35.259 E68.24184
G1 X207.857 Y35.711 E68.33966
G1 X210.445 Y37.007 E68.43593
G1 X212.547 Y39.055 E68.53354
G1 X258.8 Y100.741 E71.09791
G1 X11.061 Y100.741 E79.33775
G1 X47.584 Y39.854 E81.69925
G1 X49.104 Y37.933 E81.78073
G1 X51.036 Y36.483 E81.86107
G1 X53.266 Y35.575 E81.94115
G1 X55.702 Y35.259 E82.02285
G1 X81.125 Y35.259 E82.86843
G1 X81.125 Y38.259 E82.96821
G1 X88.875 Y38.259 E83.22597
G1 X88.875 Y35.259 E83.32575
G1 X171.125 Y35.259 E86.0614
G1 X171.125 Y38.259 E86.16118
G1 X178.875 Y38.259 E86.41895
G0 F3600 X178.475 Y37.859
;TYPE:WALL-OUTER
G1 F1800 X178.475 Y34.859 E86.51873
G1 X204.981 Y34.859 E87.40032
G1 X207.982 Y35.326 E87.50133
G1 X210.678 Y36.676 E87.60162
G1 X212.85 Y38.793 E87.7025
G1 X259.6 Y101.141 E90.29441
G1 X10.354 Y101.141 E98.58436
G1 X47.254 Y39.626 E100.97023
G1 X48.822 Y37.644 E101.05429
G1 X50.836 Y36.133 E101.13803
G1 X53.166 Y35.184 E101.22171
G1 X55.674 Y34.859 E101.30582
G1 X81.525 Y34.859 E102.16563
G1 X81.525 Y37.859 E102.26541
G1 X88.475 Y37.859 E102.49657
G1 X88.475 Y34.859 E102.59635
G1 X171.525 Y34.859 E105.3586
G1 X171.525 Y37.859 E105.45838
G1 X178.475 Y37.859 E105.68954
G0 F3600 X178.475 Y37.659
G0 X178.915 Y37.659
G0 X179.665 Y39.049
;TYPE:SKIN
G1 F1800 X179.665 Y36.049 E105.78932
G1 X204.888 Y36.049 E106.62824
G1 X207.612 Y36.472 E106.71993
G1 X209.983 Y37.661 E106.80815
G1 X211.952 Y39.577 E106.89952
G1 X257.22 Y99.951 E109.40933
G1 X12.458 Y99.951 E117.55015
G1 X48.238 Y40.301 E119.86366
G1 X49.661 Y38.503 E119.93993
G1 X51.431 Y37.175 E120.01353
G1 X53.468 Y36.345 E120.08668
G1 X55.75 Y36.049 E120.16322
G1 X80.335 Y36.049 E120.98092
G1 X80.335 Y39.049 E121.0807
G1 X89.665 Y39.049 E121.39102
G1 X89.665 Y36.049 E121.4908
G1 X170.335 Y36.049 E124.17389
G1 X170.335 Y39.049 E124.27367
G1 X179.665 Y39.049 E124.58399
G0 F3600 X175.517 Y78.725
G1 F1800 X173.511 Y79.079 E124.65174
G1 X172.2 Y80.639 E124.71952
G1 X172.2 Y82.679 E124.78737
G1 X173.511 Y84.237 E124.85509
G1 X175.517 Y84.594 E124.92286
G1 X177.282 Y83.576 E124.99063
G1 X177.98 Y81.659 E125.05848
G1 X177.282 Y79.743 E125.12631
G1 X175.517 Y78.725 E125.19408
G1 F1500 E122.19408
G0 F3600 X87.282 Y79.743
G1 F1500 E125.19408
G1 F1800 X85.517 Y78.725 E125.26184
G1 X83.511 Y79.079 E125.32959
G1 X82.2 Y80.639 E125.39737
G1 X82.2 Y82.679 E125.46522
G1 X83.511 Y84.237 E125.53294
G1 X85.517 Y84.594 E125.60071
G1 X87.282 Y83.576 E125.66848
G1 X87.98 Y81.659 E125.73634
G1 X87.282 Y79.743 E125.80416
G1 F1500 E122.80416
G0 F3600 X85.341 Y79.723
G0 X84.27 Y79.912
G0 X13.129 Y99.57
G1 F1500 E125.80416
G1 F1800 X13.586 Y99.57 E125.81936
G1 X13.3 Y99.284 E125.83281
G1 X13.512 Y98.931 E125.84651
G1 X14.152 Y99.57 E125.87659
G1 X14.717 Y99.57 E125.89538
G1 X13.724 Y98.577 E125.94209
G1 X13.937 Y98.224 E125.9558
G1 X15.283 Y99.57 E126.01911
G1 X15.849 Y99.57 E126.03794
G1 X14.149 Y97.87 E126.1179
G1 X14.36 Y97.516 E126.13161
G1 X16.414 Y99.57 E126.22822
G1 X16.98 Y99.57 E126.24705
G1 X14.572 Y97.162 E126.36031
G1 X14.784 Y96.809 E126.37401
G1 X17.546 Y99.57 E126.5039
G1 X18.111 Y99.57 E126.52269
G1 X14.997 Y96.455 E126.66919
G1 X15.209 Y96.102 E126.68288
G1 X18.677 Y99.57 E126.84601
G1 X19.243 Y99.57 E126.86483
G1 X15.421 Y95.748 E127.04461
G1 X15.633 Y95.395 E127.0583
G1 X19.808 Y99.57 E127.25468
