;FLAVOR:Marlin
;TIME:17153
;Filament used: 19.6557m
;Layer height: 0.2
;MINX:6.4
;MINY:16.917
;MINZ:0.2
;MAXX:263.6
;MAXY:182.956
;MAXZ:6
;Generated with Cura_SteamEngine 4.13.1
M140 S60
M105
M190 S60
M104 S210
M105
M109 S210
M82 ;absolute extrusion mode
G28 ;Home
G92 E0
G1 F200 E3
G92 E0
G1 F1800 X-3 Y40
G1 X-3 Y10
G1 X-3 Y40
G1 X-3 Y10
G1 Z15.0 F6000 ;Move the platform down 15mm
;Prime the extruder
G92 E0
G92 E0
G1 F1500 E-3
;LAYER_COUNT:30
;LAYER:0
M107
G0 F3600 X16.701 Y42.419 Z0.2
;TYPE:SKIRT
G1 F1500 E0
G1 F1800 X83.802 Y17.369 E2.38224
G1 X84.486 Y17.124 E2.4064
G1 X85.003 Y16.981 E2.42424
G1 X85.535 Y16.917 E2.44206
G1 X86.198 Y16.948 E2.46414
G1 X87.3 Y17.102 E2.50115
G1 X252.808 Y43.584 E8.07599
G1 X253.475 Y43.7 E8.0985
G1 X253.995 Y43.831 E8.11634
G1 X254.49 Y44.038 E8.13419
G1 X254.948 Y44.316 E8.15201
G1 X255.361 Y44.659 E8.16986
G1 X255.715 Y45.052 E8.18745
G1 X256.026 Y45.489 E8.20529
G1 X256.269 Y45.967 E8.22313
G1 X256.438 Y46.476 E8.24097
G1 X256.53 Y47.004 E8.25879
G1 X256.547 Y47.3 E8.26865
G1 X256.558 Y48.084 E8.29473
G1 X256.559 Y58.472 E8.64024
G1 X256.598 Y61.253 E8.73274
G1 X256.714 Y63.978 E8.82346
G1 X256.909 Y66.713 E8.91466
G1 X257.173 Y69.381 E9.00383
G1 X257.522 Y72.101 E9.09504
G1 X257.951 Y74.833 E9.18702
G1 X258.442 Y77.475 E9.2764
G1 X259.009 Y80.107 E9.36594
G1 X259.671 Y82.806 E9.45837
G1 X260.4 Y85.452 E9.54966
G1 X261.185 Y88.017 E9.63888
G1 X262.055 Y90.595 E9.72937
G1 X263.062 Y93.319 E9.82597
G1 X263.349 Y94.064 E9.85252
G1 X263.504 Y94.577 E9.87034
G1 X263.588 Y95.249 E9.89287
G1 X263.6 Y95.686 E9.90741
G1 X263.6 Y178.665 E12.6673
G1 X263.591 Y179.392 E12.69148
G1 X263.544 Y179.926 E12.70931
G1 X263.419 Y180.447 E12.72713
G1 X263.217 Y180.944 E12.74498
G1 X262.944 Y181.406 E12.76283
G1 X262.606 Y181.822 E12.78065
G1 X262.209 Y182.183 E12.7985
G1 X261.763 Y182.481 E12.81634
G1 X261.278 Y182.709 E12.83417
G1 X260.764 Y182.863 E12.85201
G1 X260.092 Y182.946 E12.87453
G1 X259.67 Y182.956 E12.88857
G1 X10.661 Y182.956 E21.17065
G1 X9.963 Y182.947 E21.19386
G1 X9.428 Y182.9 E21.21173
G1 X8.907 Y182.774 E21.22955
G1 X8.41 Y182.572 E21.2474
G1 X7.949 Y182.299 E21.26522
G1 X7.533 Y181.96 E21.28307
G1 X7.172 Y181.564 E21.30089
G1 X6.874 Y181.118 E21.31873
G1 X6.646 Y180.632 E21.33658
G1 X6.493 Y180.118 E21.35442
G1 X6.41 Y179.444 E21.37701
G1 X6.4 Y179.014 E21.39131
G1 X6.4 Y96.007 E24.15214
G1 X6.411 Y95.301 E24.17562
G1 X6.46 Y94.767 E24.19346
G1 X6.63 Y94.12 E24.21571
G1 X6.798 Y93.663 E24.2319
G1 X7.473 Y91.912 E24.29432
G1 X8.382 Y89.342 E24.38499
G1 X9.212 Y86.759 E24.47522
G1 X9.974 Y84.139 E24.56597
G1 X10.665 Y81.488 E24.65709
G1 X11.286 Y78.798 E24.74892
G1 X11.815 Y76.156 E24.83853
G1 X12.273 Y73.484 E24.9287
G1 X12.659 Y70.777 E25.01965
G1 X12.967 Y68.066 E25.1104
G1 X13.201 Y65.337 E25.2015
G1 X13.353 Y62.651 E25.29097
G1 X13.433 Y59.85 E25.38417
G1 X13.442 Y58.485 E25.42958
G1 X13.441 Y46.84 E25.81689
G1 X13.451 Y46.161 E25.83948
G1 X13.499 Y45.627 E25.85731
G1 X13.626 Y45.106 E25.87514
G1 X13.828 Y44.609 E25.89299
G1 X14.087 Y44.17 E25.90994
G1 X14.147 Y44.083 E25.91346
G1 X14.484 Y43.666 E25.93129
G1 X14.879 Y43.303 E25.94913
G1 X15.323 Y43.002 E25.96697
G1 X15.79 Y42.778 E25.9842
G1 X16.701 Y42.419 E26.01677
G0 F3600 X16.841 Y42.794
G1 F1800 X83.937 Y17.745 E28.39883
G1 X84.621 Y17.5 E28.423
G1 X85.109 Y17.368 E28.43981
G1 X85.612 Y17.314 E28.45664
G1 X86.143 Y17.344 E28.47433
G1 X87.237 Y17.497 E28.51107
G1 X252.739 Y43.978 E34.08571
G1 X253.406 Y44.094 E34.10822
G1 X253.896 Y44.22 E34.12505
G1 X254.36 Y44.421 E34.14187
G1 X254.786 Y44.693 E34.15868
G1 X255.318 Y45.201 E34.18315
G1 X255.407 Y45.308 E34.18778
G1 X255.699 Y45.721 E34.2046
G1 X255.922 Y46.174 E34.22139
G1 X256.07 Y46.658 E34.23823
G1 X256.147 Y47.306 E34.25993
G1 X256.158 Y48.084 E34.28581
G1 X256.159 Y58.478 E34.63151
G1 X256.199 Y61.276 E34.72459
G1 X256.314 Y63.988 E34.81487
G1 X256.51 Y66.744 E34.90677
G1 X256.777 Y69.439 E34.99684
G1 X257.129 Y72.177 E35.08866
G1 X257.55 Y74.862 E35.17905
G1 X258.053 Y77.568 E35.27059
G1 X258.622 Y80.207 E35.36038
G1 X259.282 Y82.902 E35.45267
G1 X260.008 Y85.537 E35.54358
G1 X260.81 Y88.157 E35.63471
G1 X261.687 Y90.756 E35.72594
G1 X262.671 Y93.417 E35.8203
G1 X262.976 Y94.208 E35.8485
G1 X263.12 Y94.692 E35.86529
G1 X263.189 Y95.261 E35.88436
G1 X263.2 Y95.686 E35.8985
G1 X263.2 Y178.66 E38.65823
G1 X263.191 Y179.387 E38.68241
G1 X263.145 Y179.89 E38.69921
G1 X263.02 Y180.38 E38.71603
G1 X262.819 Y180.844 E38.73284
G1 X262.548 Y181.271 E38.74967
G1 X262.213 Y181.65 E38.76649
G1 X261.823 Y181.971 E38.78329
G1 X261.387 Y182.227 E38.80011
G1 X260.916 Y182.41 E38.81691
G1 X260.422 Y182.518 E38.83373
G1 X259.76 Y182.555 E38.85578
G1 X10.666 Y182.556 E47.14068
G1 X9.968 Y182.547 E47.1639
G1 X9.464 Y182.5 E47.18074
G1 X8.974 Y182.375 E47.19756
G1 X8.51 Y182.174 E47.21438
G1 X8.084 Y181.903 E47.23117
G1 X7.705 Y181.568 E47.24799
G1 X7.384 Y181.177 E47.26482
G1 X7.129 Y180.741 E47.28162
G1 X6.945 Y180.27 E47.29844
G1 X6.838 Y179.776 E47.31525
G1 X6.801 Y179.1 E47.33776
G1 X6.8 Y96.013 E50.10125
G1 X6.811 Y95.307 E50.12473
G1 X6.859 Y94.804 E50.14154
G1 X7.006 Y94.257 E50.16038
G1 X7.171 Y93.807 E50.17632
G1 X7.847 Y92.053 E50.23884
G1 X8.764 Y89.461 E50.33029
G1 X9.591 Y86.888 E50.42018
G1 X10.362 Y84.237 E50.512
G1 X11.056 Y81.574 E50.60353
G1 X11.673 Y78.901 E50.69478
G1 X12.207 Y76.23 E50.78537
G1 X12.669 Y73.536 E50.87628
G1 X13.058 Y70.807 E50.96797
G1 X13.365 Y68.109 E51.05828
G1 X13.598 Y65.393 E51.14895
G1 X13.753 Y62.651 E51.24029
G1 X13.832 Y59.885 E51.33233
G1 X13.842 Y58.488 E51.37879
G1 X13.841 Y46.846 E51.76601
G1 X13.851 Y46.167 E51.78859
G1 X13.899 Y45.664 E51.8054
G1 X14.025 Y45.174 E51.82223
G1 X14.226 Y44.71 E51.83905
G1 X14.477 Y44.31 E51.85475
G1 X14.796 Y43.918 E51.87156
G1 X15.173 Y43.581 E51.88838
G1 X15.598 Y43.307 E51.9052
G1 X15.936 Y43.15 E51.91759
G1 X16.841 Y42.794 E51.94994
G0 F3600 X17.241 Y46.274
;TYPE:SUPPORT
G1 F1800 X85.741 Y20.7 E54.38186
G1 X252.758 Y47.424 E60.00753
G1 X252.758 Y63.075 E60.52809
G1 X85.752 Y89.797 E66.15339
G1 X17.242 Y64.213 E68.58574
G1 X17.241 Y46.274 E69.18239
G1 F1500 E66.18239
G0 F3600 X19.488 Y47.413
G1 F1500 E69.18239
G1 F1800 X19.095 Y47.977 E69.20525
G1 X19.095 Y62.519 E69.68892
G1 X19.488 Y63.083 E69.71179
G1 X85.788 Y87.836 E72.06561
G1 X86.072 Y87.868 E72.07511
G1 X250.377 Y61.579 E77.60943
G1 X250.905 Y60.963 E77.63641
G1 X250.905 Y49.534 E78.01654
G1 X250.377 Y48.918 E78.04353
G1 X86.072 Y22.629 E83.57784
G1 X85.788 Y22.661 E83.58735
G1 X19.488 Y47.413 E85.94116
G0 F3600 X19.231 Y47.5
G1 F1800 X17.4 Y47.5 E86.00206
G0 F3600 X17.5 Y46.347
G1 F1800 X17.5 Y64.139 E86.59382
G0 F3600 X17.4 Y62.5
G1 F1800 X18.934 Y62.5 E86.64484
G1 F1500 E83.64484
G0 F3600 X20 Y63.447
G1 F1500 E86.64484
G1 F1800 X20 Y65.073 E86.69892
G0 F3600 X19.803 Y65
G1 F1800 X24.161 Y65 E86.84387
G0 F3600 X25 Y65.313
G1 F1800 X25 Y66.94 E86.89799
G0 F3600 X26.497 Y67.5
G1 F1800 X30.858 Y67.5 E87.04303
G0 F3600 X30 Y67.18
G1 F1800 X30 Y68.807 E87.09715
G0 F3600 X32.5 Y68.113
G1 F1800 X32.5 Y69.74 E87.15126
G0 F3600 X33.192 Y70
G1 F1800 X37.554 Y70 E87.29634
G1 X37.5 Y69.98
G1 X37.5 Y71.608 E87.35049
G0 F3600 X39.887 Y72.5
G1 F1800 X44.251 Y72.5 E87.49564
G0 F3600 X45 Y72.78
G1 F1800 X45 Y74.408 E87.54978
G0 F3600 X46.582 Y75
G1 F1800 X50.947 Y75 E87.69497
G0 F3600 X50 Y74.647
G1 F1800 X50 Y76.275 E87.74911
G0 F3600 X52.5 Y75.58
G1 F1800 X52.5 Y77.209 E87.80329
G0 F3600 X53.276 Y77.5
G1 F1800 X57.644 Y77.5 E87.94857
G1 X57.5 Y77.447
G1 X57.5 Y79.076 E88.00275
G0 F3600 X60 Y78.38
G1 F1800 X60 Y80.01 E88.05697
G1 X59.971 Y80
G1 X64.34 Y80 E88.20228
G0 F3600 X65 Y80.247
G1 F1800 X65 Y81.877 E88.2565
G0 F3600 X66.667 Y82.5
G1 F1800 X71.038 Y82.5 E88.40188
G0 F3600 X70 Y82.113
G1 F1800 X70 Y83.744 E88.45612
G0 F3600 X72.5 Y83.047
G1 F1800 X72.5 Y84.678 E88.51037
G0 F3600 X73.362 Y85
G1 F1800 X77.734 Y85 E88.65578
G0 F3600 X77.5 Y84.913
G1 F1800 X77.5 Y86.545 E88.71006
G0 F3600 X80 Y85.847
G1 F1800 X80 Y87.478 E88.76431
G1 X80.057 Y87.5
G1 X84.431 Y87.5 E88.90979
G0 F3600 X85 Y87.713
G1 F1800 X85 Y89.345 E88.96407
G0 F3600 X87.5 Y89.357
G1 F1800 X87.5 Y87.802 E89.01579
G0 F3600 X89.392 Y87.5
G1 F1800 X99.099 Y87.5 E89.33865
G0 F3600 X100 Y87.356
G1 F1800 X100 Y85.802 E89.39033
G0 F3600 X102.5 Y85.402
G1 F1800 X102.5 Y86.956 E89.44202
G0 F3600 X105 Y86.556
G1 F1800 X105 Y85.002 E89.49371
G1 X105.016 Y85
G1 X114.722 Y85 E89.81653
G0 F3600 X115 Y84.956
G1 F1800 X115 Y83.402 E89.86822
G0 F3600 X112.5 Y83.802
G1 F1800 X112.5 Y85.356 E89.9199
G0 F3600 X110 Y85.756
G1 F1800 X110 Y84.202 E89.97159
G0 F3600 X107.5 Y84.602
G1 F1800 X107.5 Y86.156 E90.02327
G0 F3600 X97.5 Y86.202
G1 F1800 X97.5 Y87.756 E90.07496
G0 F3600 X95 Y88.156
G1 F1800 X95 Y86.602 E90.12665
G0 F3600 X92.5 Y87.002
G1 F1800 X92.5 Y88.556 E90.17833
G0 F3600 X90 Y88.957
G1 F1800 X90 Y87.402 E90.23005
G1 F1500 E87.23005
G0 F3600 X86.074 Y88.008
G0 X82.5 Y86.78
G1 F1500 E90.23005
G1 F1800 X82.5 Y88.412 E90.28433
G0 F3600 X75 Y85.611
G1 F1800 X75 Y83.98 E90.33858
G0 F3600 X67.5 Y82.81
G1 F1800 X67.5 Y81.18 E90.39279
G0 F3600 X62.5 Y80.943
G1 F1800 X62.5 Y79.313 E90.44701
G0 F3600 X55 Y78.143
G1 F1800 X55 Y76.513 E90.50122
G0 F3600 X47.5 Y75.342
G1 F1800 X47.5 Y73.713 E90.5554
G0 F3600 X42.5 Y73.475
G1 F1800 X42.5 Y71.847 E90.60955
G0 F3600 X40 Y72.541
G1 F1800 X40 Y70.913 E90.6637
G0 F3600 X35 Y70.674
G1 F1800 X35 Y69.047 E90.71781
G0 F3600 X27.5 Y67.873
G1 F1800 X27.5 Y66.247 E90.77189
G0 F3600 X22.5 Y66.006
G1 F1800 X22.5 Y64.38 E90.82597
G1 F1500 E87.82597
G0 F3600 X19.4 Y63.197
G0 X18.934 Y60
G1 F1500 E90.82597
G1 F1800 X17.4 Y60 E90.877
G0 F3600 X17.4 Y57.5
G1 F1800 X18.934 Y57.5 E90.92802
G0 F3600 X18.934 Y55
G1 F1800 X17.4 Y55 E90.97904
G0 F3600 X17.4 Y52.5
G1 F1800 X18.934 Y52.5 E91.03006
G0 F3600 X18.934 Y50
G1 F1800 X17.4 Y50 E91.08108
G1 F1500 E88.08108
G0 F3600 X19.4 Y47.299
G0 X20 Y47.05
G1 F1500 E91.08108
G1 F1800 X20 Y45.413 E91.13553
G0 F3600 X21.107 Y45
G1 F1800 X25.489 Y45 E91.28127
G0 F3600 X25 Y45.184
G1 F1800 X25 Y43.547 E91.33572
G0 F3600 X27.5 Y44.25
G1 F1800 X27.5 Y42.613 E91.39017
G0 F3600 X27.804 Y42.5
G1 F1800 X32.185 Y42.5 E91.53588
G0 F3600 X32.5 Y42.384
G1 F1800 X32.5 Y40.747 E91.59033
G0 F3600 X34.501 Y40
G1 F1800 X38.883 Y40 E91.73607
G0 F3600 X40 Y39.584
G1 F1800 X40 Y37.947 E91.79052
G0 F3600 X41.197 Y37.5
G1 F1800 X45.579 Y37.5 E91.93626
G0 F3600 X45 Y37.717
G1 F1800 X45 Y36.08 E91.99071
G0 F3600 X47.5 Y36.784
G1 F1800 X47.5 Y35.147 E92.04516
G0 F3600 X47.893 Y35
G1 F1800 X52.276 Y35 E92.19094
G0 F3600 X52.5 Y34.918
G1 F1800 X52.5 Y33.28 E92.24542
G0 F3600 X54.589 Y32.5
G1 F1800 X58.972 Y32.5 E92.3912
G0 F3600 X60 Y32.118
G1 F1800 X60 Y30.48 E92.44568
G0 F3600 X61.285 Y30
G1 F1800 X65.669 Y30 E92.59149
G0 F3600 X65 Y30.251
G1 F1800 X65 Y28.613 E92.64597
G0 F3600 X67.5 Y29.318
G1 F1800 X67.5 Y27.68 E92.70045
G0 F3600 X67.982 Y27.5
G1 F1800 X72.365 Y27.5 E92.84623
G1 X72.5 Y27.451
G1 X72.5 Y25.813 E92.90071
G0 F3600 X74.678 Y25
G1 F1800 X79.062 Y25 E93.04652
G0 F3600 X80 Y24.651
G1 F1800 X80 Y23.013 E93.101
G0 F3600 X81.374 Y22.5
G1 F1800 X85.782 Y22.5 E93.24761
G0 F3600 X86.291 Y22.5
G1 F1800 X95.989 Y22.5 E93.57017
G0 F3600 X95 Y22.343
G1 F1800 X95 Y23.894 E93.62176
G0 F3600 X92.5 Y23.494
G1 F1800 X92.5 Y21.943 E93.67334
G0 F3600 X90 Y21.543
G1 F1800 X90 Y23.094 E93.72493
G0 F3600 X87.5 Y22.694
G1 F1800 X87.5 Y21.143 E93.77651
G0 F3600 X85 Y21.146
G1 F1800 X85 Y22.785 E93.83103
G0 F3600 X82.5 Y22.08
G1 F1800 X82.5 Y23.718 E93.88551
G0 F3600 X77.5 Y23.946
G1 F1800 X77.5 Y25.585 E93.94002
G0 F3600 X75 Y24.88
G1 F1800 X75 Y26.518 E93.9945
G0 F3600 X70 Y26.746
G1 F1800 X70 Y28.384 E94.04898
G0 F3600 X62.5 Y29.547
G1 F1800 X62.5 Y31.184 E94.10343
G0 F3600 X57.5 Y31.413
G1 F1800 X57.5 Y33.051 E94.15791
G0 F3600 X55 Y32.347
G1 F1800 X55 Y33.984 E94.21236
G0 F3600 X50 Y34.213
G1 F1800 X50 Y35.851 E94.26684
G0 F3600 X42.5 Y37.013
G1 F1800 X42.5 Y38.651 E94.32132
G0 F3600 X37.5 Y38.88
G1 F1800 X37.5 Y40.517 E94.37576
G0 F3600 X35 Y39.813
G1 F1800 X35 Y41.451 E94.43024
G0 F3600 X30 Y41.68
G1 F1800 X30 Y43.317 E94.48469
G0 F3600 X22.5 Y44.48
G1 F1800 X22.5 Y46.117 E94.53914
G1 F1500 E91.53914
G0 F3600 X85.755 Y22.526
G0 X97.5 Y24.294
G1 F1500 E94.53914
G1 F1800 X97.5 Y22.743 E94.59072
G0 F3600 X100 Y23.143
G1 F1800 X100 Y24.694 E94.64231
G0 F3600 X101.915 Y25
G1 F1800 X111.613 Y25 E94.96487
G0 F3600 X112.5 Y25.143
G1 F1800 X112.5 Y26.694 E95.01645
G0 F3600 X110 Y26.294
G1 F1800 X110 Y24.743 E95.06804
G0 F3600 X107.5 Y24.343
G1 F1800 X107.5 Y25.894 E95.11963
G0 F3600 X105 Y25.494
G1 F1800 X105 Y23.943 E95.17121
G0 F3600 X102.5 Y23.543
G1 F1800 X102.5 Y25.094 E95.2228
G0 F3600 X115 Y25.544
G1 F1800 X115 Y27.094 E95.27435
G0 F3600 X117.5 Y27.494
G1 F1800 X117.5 Y25.944 E95.3259
G0 F3600 X117.54 Y27.5
G1 F1800 X127.237 Y27.5 E95.64843
G0 F3600 X127.5 Y27.544
G1 F1800 X127.5 Y29.094 E95.69998
G0 F3600 X125 Y28.694
G1 F1800 X125 Y27.144 E95.75153
G0 F3600 X122.5 Y26.744
G1 F1800 X122.5 Y28.294 E95.80309
G0 F3600 X120 Y27.894
G1 F1800 X120 Y26.344 E95.85464
G0 F3600 X130 Y27.944
G1 F1800 X130 Y29.494 E95.90619
G0 F3600 X132.5 Y29.894
G1 F1800 X132.5 Y28.344 E95.95775
G0 F3600 X133.164 Y30
G1 F1800 X142.861 Y30 E96.28027
G0 F3600 X142.5 Y29.944
G1 F1800 X142.5 Y31.494 E96.33182
G0 F3600 X140 Y31.094
G1 F1800 X140 Y29.544 E96.38338
G0 F3600 X137.5 Y29.144
G1 F1800 X137.5 Y30.694 E96.43493
G0 F3600 X135 Y30.294
G1 F1800 X135 Y28.744 E96.48648
G0 F3600 X145 Y30.344
G1 F1800 X145 Y31.894 E96.53804
G0 F3600 X147.5 Y32.294
G1 F1800 X147.5 Y30.744 E96.58959
G0 F3600 X148.789 Y32.5
G1 F1800 X158.485 Y32.5 E96.91208
G0 F3600 X157.5 Y32.344
G1 F1800 X157.5 Y33.894 E96.96363
G0 F3600 X155 Y33.494
G1 F1800 X155 Y31.944 E97.01519
G0 F3600 X152.5 Y31.544
G1 F1800 X152.5 Y33.094 E97.06674
G0 F3600 X150 Y32.694
G1 F1800 X150 Y31.144 E97.11829
G0 F3600 X160 Y32.744
G1 F1800 X160 Y34.294 E97.16985
G0 F3600 X162.5 Y34.694
G1 F1800 X162.5 Y33.144 E97.2214
G0 F3600 X165 Y33.544
G1 F1800 X165 Y35.094 E97.27295
G0 F3600 X164.413 Y35
G1 F1800 X174.109 Y35 E97.59544
G0 F3600 X175 Y35.144
G1 F1800 X175 Y36.694 E97.647
G0 F3600 X172.5 Y36.294
G1 F1800 X172.5 Y34.744 E97.69855
G0 F3600 X170 Y34.344
G1 F1800 X170 Y35.894 E97.7501
G0 F3600 X167.5 Y35.494
G1 F1800 X167.5 Y33.944 E97.80166
G0 F3600 X177.5 Y35.544
G1 F1800 X177.5 Y37.094 E97.85321
G0 F3600 X180 Y37.494
G1 F1800 X180 Y35.944 E97.90476
G0 F3600 X180.037 Y37.5
G1 F1800 X189.734 Y37.5 E98.22729
G0 F3600 X190 Y37.544
G1 F1800 X190 Y39.095 E98.27887
G0 F3600 X187.5 Y38.695
G1 F1800 X187.5 Y37.144 E98.33046
G0 F3600 X185 Y36.744
G1 F1800 X185 Y38.294 E98.38201
G0 F3600 X182.5 Y37.894
G1 F1800 X182.5 Y36.344 E98.43357
G0 F3600 X192.5 Y37.944
G1 F1800 X192.5 Y39.495 E98.48515
G0 F3600 X195 Y39.895
G1 F1800 X195 Y38.344 E98.53674
G0 F3600 X195.662 Y40
G1 F1800 X205.358 Y40 E98.85923
G0 F3600 X205 Y39.944
G1 F1800 X205 Y41.495 E98.91081
G0 F3600 X202.5 Y41.095
G1 F1800 X202.5 Y39.544 E98.9624
G0 F3600 X200 Y39.144
G1 F1800 X200 Y40.695 E99.01399
G0 F3600 X197.5 Y40.295
G1 F1800 X197.5 Y38.744 E99.06557
G0 F3600 X207.5 Y40.344
G1 F1800 X207.5 Y41.895 E99.11716
G0 F3600 X210 Y42.295
G1 F1800 X210 Y40.744 E99.16875
G0 F3600 X211.286 Y42.5
G1 F1800 X220.982 Y42.5 E99.49124
G0 F3600 X220 Y42.345
G1 F1800 X220 Y43.895 E99.54279
G0 F3600 X217.5 Y43.495
G1 F1800 X217.5 Y41.944 E99.59438
G0 F3600 X215 Y41.544
G1 F1800 X215 Y43.095 E99.64596
G0 F3600 X212.5 Y42.695
G1 F1800 X212.5 Y41.144 E99.69755
G0 F3600 X222.5 Y42.745
G1 F1800 X222.5 Y44.295 E99.7491
G0 F3600 X225 Y44.695
G1 F1800 X225 Y43.145 E99.80066
G0 F3600 X227.5 Y43.545
G1 F1800 X227.5 Y45.095 E99.85221
G0 F3600 X226.91 Y45
G1 F1800 X236.606 Y45 E100.1747
G0 F3600 X237.5 Y45.145
G1 F1800 X237.5 Y46.695 E100.22625
G0 F3600 X235 Y46.295
G1 F1800 X235 Y44.745 E100.27781
G0 F3600 X232.5 Y44.345
G1 F1800 X232.5 Y45.895 E100.32936
G0 F3600 X230 Y45.495
G1 F1800 X230 Y43.945 E100.38091
G0 F3600 X240 Y45.545
G1 F1800 X240 Y47.095 E100.43247
G0 F3600 X242.5 Y47.495
G1 F1800 X242.5 Y45.945 E100.48402
G0 F3600 X242.535 Y47.5
G1 F1800 X252.23 Y47.5 E100.80648
G0 F3600 X252.5 Y47.545
